X: 7871
T: Compliments To Sean Maguire
R: hornpipe
M: 4/4
K: Dmajor
|:AG|FD ~D2 ADFA|G3 G- GAB=c|cA ~A2 eAce|~d2 dc dd[Aa][Gg]|
[Ff][Dd] ~[D2d2] cd=cd|BG ~G2 GAB=c|cA ~A2 eAce|d/e/d ce d2:|
|:(3aba|fdAd FAde|fdce dBAF|BgAf GeFd|cA ~A2 eAce|
d/d/d ad [fd']dad|bdad cA ~A2|1 B/B/B g z A/A/A f z|Ge c/d/e d2:|2 G/G/G eG fGeG|cB (3ABc d2||

